Numix/categories/48/applications-ruby.svg

<svg xmlns="http://www.w3.org/2000/svg" viewBox="0 0 256 256" xmlns:xlink="http://www.w3.org/1999/xlink">
<g style="stroke-dashoffset:3.003;stroke-linejoin:round;stroke-linecap:round;stroke:#e04848;fill:none">
<g transform="translate(0 208)">
<path style="stroke-width:4.23" d="m 107.28708,-150.67571 18.59381,50.28394 23.75874,-59.63908"/>
<path style="stroke-width:4.553" d="m 102.33711,-150.08133 -37.637616,51.808033 7.918203,-48.277093"/>
</g>
<g style="stroke-width:4.336" transform="translate(0 208)">
<path d="m 150.70994,-155.81198 44.83635,41.80785 -8.94757,-47.07431"/>
<path d="M 30.800454,-96.029707 C 28.39286,-101.07087 141.72532,1.9158579 141.72532,1.9158579 L 94.733852,-97.499887 z"/>
<path d="m 30.168141,-96.844197 42.415385,-50.654653 33.625384,-6.28511 -14.641992,56.056473 z"/>
<path d="m 149.14304,-160.7655 36.49134,-1.15036 39.57975,38.94228 -64.3049,17.66822 z"/>
<path d="m 105.16566,-153.51711 43.73747,-7.21783 12.70211,55.97212 -69.960021,7.656693 z"/>
<path d="m 142.3241,1.2326021 83.50776,-124.2849621 -64.22662,18.28954 z"/>
</g>
<g style="stroke-width:2.168" transform="translate(0 208)">
<path d="M 195.14722,-114.19377 144.27025,-1.4442873"/>
<path d="m 124.31703,-101.06274 18.46853,99.6184527 -3.58436,-2.4587749"/>
<path d="M 58.900687,-97.020027 140.03363,-1.2631195"/>
</g>
</g>
</svg>

<svg width="47.5" xmlns="http://www.w3.org/2000/svg" height="47.5" viewBox="0 0 38 38" xmlns:xlink="http://www.w3.org/1999/xlink">
<g style="stroke-linejoin:round;stroke-linecap:round;stroke:#df4747;fill:none">
<g>
<path style="stroke-width:4.23" d="M 107.289474 -150.684211 L 125.868421 -100.394737 L 149.631579 -160.026316 " transform="matrix(.14844 0 0 .14844 0 30.875)"/>
<path style="stroke-width:4.553" d="M 102.342105 -150.078947 L 64.710526 -98.263158 L 72.605263 -146.552632 " transform="matrix(.14844 0 0 .14844 0 30.875)"/>
</g>
<g style="stroke-width:4.336">
<path d="M 150.710526 -155.815789 L 195.552632 -114 L 186.605263 -161.078947 " transform="matrix(.14844 0 0 .14844 0 30.875)"/>
<path d="M 30.789474 -96.026316 C 28.394737 -101.078947 141.736842 1.921053 141.736842 1.921053 L 94.736842 -97.5 Z " transform="matrix(.14844 0 0 .14844 0 30.875)"/>
<path d="M 30.157895 -96.842105 L 72.578947 -147.5 L 106.210526 -153.789474 L 91.578947 -97.736842 Z " transform="matrix(.14844 0 0 .14844 0 30.875)"/>
<path d="M 149.131579 -160.763158 L 185.631579 -161.921053 L 225.210526 -122.973684 L 160.921053 -105.315789 Z " transform="matrix(.14844 0 0 .14844 0 30.875)"/>
<path d="M 105.157895 -153.526316 L 148.894737 -160.736842 L 161.605263 -104.763158 L 91.657895 -97.105263 Z " transform="matrix(.14844 0 0 .14844 0 30.875)"/>
<path d="M 142.315789 1.236842 L 225.842105 -123.052632 L 161.605263 -104.763158 Z " transform="matrix(.14844 0 0 .14844 0 30.875)"/>
</g>
<g style="stroke-width:2.168">
<path d="M 195.157895 -114.184211 L 144.263158 -1.447368 " transform="matrix(.14844 0 0 .14844 0 30.875)"/>
<path d="M 124.315789 -101.052632 L 142.789474 -1.447368 L 139.210526 -3.894737 " transform="matrix(.14844 0 0 .14844 0 30.875)"/>
<path d="M 58.894737 -97.026316 L 140.026316 -1.263158 " transform="matrix(.14844 0 0 .14844 0 30.875)"/>
</g>
</g>
</svg>
